X:45
T:Push around the gorom. JMP.045
T:Push around the jorum,aka. JMP.045
M:2/4
L:1/8
Q:1/2=80
C:â€50â€³
S:John Miller MS. Perth, 1799.(for the fife)
R:.Reel
O:Scotland
A:Perth
N:2 â€“ no final bar lines â€“ D Capo written at end of
N:tune.
N:â€™The Right Honourableâ€™ written under the tune.
H:1799
Z:vmp.C. Graebe
K:G Major
BGGG | FAAc | BGBd | g2 fe |dGBG | FAAB | EGFA | G2G :|!
|:d | (g>g)fg | agfd | g2 fg | â€ crâ€a3 d |(g>g)fg | agfd |\
egfa | g2 â€œ2â€g:|

